X:1
T:He’s with Me All the Time
T:He’s with Me All the Time
T:May D. Kirkpatrick
T:May D. Kirkpatrick, 1892
T:Public Domain Courtesy of the Cyber Hymnal™
C:May D. Kirkpatrick
Z:Public Domain
Z:Courtesy of the Cyber Hymnal™
%%score ( 1 2 ) ( 3 4 )
L:1/8
M:4/4
K:G
V:1 treble 
V:2 treble 
V:3 bass 
V:4 bass 
V:1
 [B,D]2 | [B,D]2 [B,D]2 [CE]2 [CE]2 | [B,D]2 [B,G]4 [B,G]2 | [DA]2 [DA]2 [DG]2 [DA]2 | %4
w: 1.~My|soul is full of|glad- ness, My|heart is full of|
w: 2.~I|hold the hand of|Je- sus, He|keeps me safe al-|
w: 3.~I|walk in bright- est|sun- shine, That|shines a- long the|
w: 4.~I|hear the soft- est|mu- sic, Like|bells of silv- er|
 [DB]6 [B,D]2 | [B,D]2 [B,D]2 [CE]2 [CE]2 | [B,D]2 [DG]4 [EA]2 | [DB]2 [DB]2 [CA]3 [CA] | [B,G]6 || %9
w: song; My|lov- ing friend, my|Je- sus, Is|with me all day|long.|
w: way; Thro’|un- known paths He|guides me, He’s|with me all the|day.|
w: way; It|is the smile of|Je- sus, He’s|with me all the|day.|
w: chime; It|is the voice of|Je- sus, He’s|with me all the|time.|
"^Refrain" [Gd]2 | [Gd]2 [Gd]2 [Ge]3 [Ge] | [Gd]6 [GB]2 | [FA]2 [FA]2 G3 [FA] | [GB]6 [GB]2 | %14
w: |||||
w: |||||
w: |||||
w: |||||
 [Gc]2 [Gc]2 [Gd]2 [Ge]2 | [Gd]2 [Gd]4 [DG]2 | [GB]2 [GB]2 [FA]3 [DA] | [DG]6 |] %18
w: ||||
w: ||||
w: ||||
w: ||||
V:2
 x2 | x8 | x8 | x8 | x8 | x8 | x8 | x8 | x6 || x2 | x8 | x8 | x4 G3 x | x8 | x8 | x8 | x8 | x6 |] %18
V:3
 [G,,G,]2 | [G,,G,]2 [G,,G,]2 [G,,G,]2 [G,,G,]2 | [G,,G,]2 [G,,D,]4 [G,,G,]2 | %3
w: ~|~ ~ ~ ~|~ ~ ~|
 [D,F,]2 [D,F,]2 [B,,G,]2 [D,F,]2 | G,6 [G,,G,]2 | [G,,G,]2 [G,,G,]2 [G,,G,]2 [G,,G,]2 | %6
w: ~ ~ ~ ~|~ ~|~ ~ ~ ~|
 [G,,G,]2 [B,,G,]4 [C,G,]2 | [D,G,]2 [D,G,]2 [D,F,]3 [D,F,] | [G,,G,]6 || [G,B,]2 | %10
w: ~ ~ ~|~ ~ ~ ~|~|He’s|
 [G,B,]2 [G,B,]2 [G,C]3 [G,C] | [G,B,]6 [G,D]2 | [D,C]2 [D,C]2 [D,B,]3 [D,D] | [G,D]6 [=F,D]2 | %14
w: with me all the|day, He’s|with me all the|time, My|
 [E,C]2 [E,C]2 [D,B,]2 [C,C]2 | [G,B,]2 [G,B,]4 [G,B,]2 | [D,D]2 [D,D]2 [D,D]3 [D,D] | %17
w: lov- ing friend, my|Je- sus, He’s|with me all the|
 [G,,G,B,]6 |] %18
w: time.|
V:4
 x2 | x8 | x8 | x8 | G,6 x2 | x8 | x8 | x8 | x6 || x2 | x8 | x8 | x8 | x8 | x8 | x8 | x8 | x6 |] %18

